X:23601
T:Will You Patch My Pants For Me?
T:Hedgehog Skin, The
T:Igelkottaskinnet
R:Polka
C:Trad.
O:Sweden, via USA
Z:Paul Hardy's Annex Tunebook 2015 (see www.paulhardy.net). Creative Commons cc by-nc-sa licenced.
M:2/2
L:1/8
Q:1/2=70
K:D
A|"D"A2 d2 "Bm"d2 ed|"G"d2 cB "A"cB A2|ce e2 e2 ag|"D"f3e "Bm"fe dc|
"G"B2 B2 BdcB|B2 AG "D"F3A|"A"A2 ce "A7"gece|"D"d2 fe d3:|
|:f|"D"a2 a2 a2 ba|"A"a2 gf gfef|"G"g2 g2 g2 ag|"D"f3e "Bm"fedc|
"G"B2 B2 BdcB|B2 AG "D"F3A|"A"A2 ce "A7"gece|"D"d2 d2 d3:|

